packages/core/src/svgs/ubxs.svg

<svg width="24" height="24" viewBox="0 0 24 24" fill="none" xmlns="http://www.w3.org/2000/svg">
<g clip-path="url(#clip0_31_20131)">
<path d="M0 0H24V24H0V0Z" fill="url(#paint0_linear_31_20131)"/>
<path d="M19.2172 10.9974C19.0739 9.98726 18.7087 9.02144 18.1477 8.16928C17.5868 7.31713 16.8441 6.59978 15.9729 6.06878C15.6644 5.88021 15.3301 5.71307 14.9958 5.57164L15.2658 5.14307L13.7058 5.53735L14.2244 6.79307L14.5672 6.25307C15.7506 6.79112 16.7184 7.71204 17.3144 8.86735C17.9482 10.128 18.0888 11.5799 17.7087 12.9388C17.5004 13.6869 17.1481 14.3871 16.6715 15.0002C16.15 15.6702 15.4965 16.2259 14.7515 16.6331L13.9501 13.9759C14.1482 13.8897 14.344 13.7982 14.5372 13.7016L14.6658 13.6245L14.7001 13.6074C14.9139 13.4694 15.1048 13.2987 15.2658 13.1016C15.4168 12.9045 15.5354 12.6846 15.6172 12.4502C15.7793 11.9621 15.7502 11.4306 15.5358 10.9631C15.4292 10.6651 15.2531 10.397 15.022 10.1808C14.7909 9.96463 14.5116 9.80673 14.2072 9.72021C14.0058 9.65592 13.7787 9.61307 13.5301 9.59592C13.6801 9.48449 13.8044 9.36878 13.8987 9.24449C13.9972 9.12021 14.0701 8.99592 14.1129 8.85878C14.1558 8.73021 14.1729 8.59735 14.1644 8.45592C14.1564 8.30847 14.123 8.16349 14.0658 8.02735C14.0073 7.88275 13.931 7.74598 13.8387 7.62021C13.7454 7.49958 13.6341 7.39405 13.5087 7.30735L13.4701 7.28164L13.4529 7.26878L13.4444 7.26021H13.4358L13.4144 7.24307L13.3972 7.23449C13.3899 7.23061 13.3827 7.22631 13.3758 7.22164L13.3629 7.21307H13.3544C13.1961 7.12462 13.0277 7.05555 12.8529 7.00735C12.6868 6.972 12.5171 6.95618 12.3472 6.96021H12.3087L12.2658 6.96878H12.2315L12.1244 6.98592L11.9958 6.99878L11.8587 7.02021L11.6015 6.15021L10.8301 6.34307L11.0529 7.18735L11.0229 7.19592C11.0156 7.1983 11.0085 7.20116 11.0015 7.20449H10.9887L10.9801 7.20878C10.9703 7.2122 10.9602 7.21507 10.9501 7.21735L10.9244 7.22164L10.8944 7.23021L10.8687 7.23449L10.3544 7.36735L9.88723 5.3445L9.8058 5.37021H9.79723L9.71152 5.40021L9.6258 5.43021L9.53152 5.46449L9.39437 5.51592L9.3558 5.53307L9.18437 5.60164C8.65434 5.83124 8.15128 6.1187 7.68437 6.45878C6.57591 7.27004 5.7176 8.37634 5.20723 9.65164C4.74893 10.8168 4.60842 12.0829 4.80009 13.3202C4.93426 14.1984 5.24321 15.0407 5.70866 15.7974C5.95295 16.2045 6.24009 16.5816 6.57437 16.9416L5.95295 17.8759L8.25437 17.2888L8.02295 14.7516L7.43152 15.6431C6.66006 14.8655 6.13272 13.8793 5.91437 12.8059C5.72808 11.8602 5.78411 10.8827 6.07723 9.9645C6.41492 8.88478 7.05435 7.92415 7.92009 7.19592C8.3358 6.8445 8.80295 6.5445 9.30866 6.3045L9.54866 7.56878L7.84295 7.99735L7.95009 8.98307L8.79009 8.76878L9.49723 13.5731L8.47723 13.8302L8.64866 15.4031L10.9201 14.8245L11.2329 16.4959L12.3558 16.2045L11.9787 14.5588L12.6301 14.3916L12.6987 14.3745L12.7715 14.3574L12.8401 14.3359L12.9087 14.3188L14.1001 18.8574H14.1087C14.3136 18.7987 14.5141 18.7257 14.7087 18.6388L14.8372 18.5831C15.9912 18.099 17.0009 17.3255 17.7687 16.3374C18.3546 15.5891 18.785 14.7312 19.0345 13.8141C19.2841 12.8971 19.3476 11.9394 19.2215 10.9974H19.2172ZM10.9029 9.73735L10.5772 8.32307L11.0187 8.21164L11.0615 8.19878C11.2834 8.14519 11.5105 8.11644 11.7387 8.11307L11.8972 8.14307C11.9905 8.16781 12.0741 8.22008 12.1372 8.29307L12.2229 8.42164C12.2799 8.53426 12.3162 8.65619 12.3301 8.78164V8.95307C12.3156 9.05654 12.2708 9.15344 12.2015 9.23164C12.1672 9.2745 12.1244 9.30449 12.0729 9.34307C11.9531 9.41968 11.8252 9.48291 11.6915 9.53164C11.6069 9.56078 11.5211 9.58652 11.4344 9.60878L10.8987 9.73735H10.9029ZM13.4744 11.9531C13.4701 12.0302 13.4572 12.0988 13.4315 12.1674C13.4101 12.2274 13.3758 12.2874 13.3329 12.3388C13.2901 12.3945 13.2344 12.4416 13.1701 12.4931C13.1015 12.5445 13.0244 12.5874 12.9387 12.6345C12.7205 12.7416 12.4903 12.8222 12.2529 12.8745L11.6529 13.0288L11.1644 10.9116L11.7215 10.7702C11.9296 10.7179 12.1418 10.6834 12.3558 10.6674C12.4501 10.6674 12.5315 10.6674 12.6129 10.6802C12.7223 10.6857 12.829 10.7155 12.9253 10.7674C13.0217 10.8193 13.1053 10.892 13.1701 10.9802C13.2195 11.0429 13.2626 11.1104 13.2987 11.1816C13.3896 11.3825 13.4474 11.5966 13.4701 11.8159C13.4787 11.8588 13.4787 11.9102 13.4744 11.9531Z" fill="#F0F3FA"/>
</g>
<defs>
<linearGradient id="paint0_linear_31_20131" x1="12" y1="0" x2="12" y2="24" gradientUnits="userSpaceOnUse">
<stop stop-color="#5BC8CB"/>
<stop offset="1" stop-color="#03A4DF"/>
</linearGradient>
<clipPath id="clip0_31_20131">
<rect width="24" height="24" fill="white"/>
</clipPath>
</defs>
</svg>

<svg xmlns="http://www.w3.org/2000/svg" width="24" height="24" fill="none" viewBox="0 0 24 24"><g clip-path="url(#a)"><path fill="url(#b)" d="M0 0h24v24H0z"/><path fill="#F0F3FA" d="M19.217 10.997a6.9 6.9 0 0 0-3.244-4.928 7.5 7.5 0 0 0-.977-.497l.27-.429-1.56.394.518 1.256.343-.54a5.8 5.8 0 0 1 2.747 2.614 5.67 5.67 0 0 1 .395 4.072A6 6 0 0 1 16.672 15a6.2 6.2 0 0 1-1.92 1.633l-.802-2.657q.297-.13.587-.274l.129-.078.034-.017q.323-.208.566-.505c.15-.197.27-.417.351-.652a2.03 2.03 0 0 0-.081-1.487 1.99 1.99 0 0 0-1.329-1.243 3 3 0 0 0-.677-.124q.226-.166.369-.352a1.2 1.2 0 0 0 .214-.385q.064-.192.051-.403a1.3 1.3 0 0 0-.098-.429 2 2 0 0 0-.227-.407 1.5 1.5 0 0 0-.33-.313l-.039-.025-.017-.013-.009-.009h-.008l-.022-.017-.017-.009-.021-.012-.013-.009h-.009a2.3 2.3 0 0 0-.501-.206 2.2 2.2 0 0 0-.506-.047h-.038l-.043.009h-.034l-.108.017-.128.013-.137.021-.258-.87-.77.193.222.844-.03.009-.021.008h-.013l-.009.005-.03.008-.026.005-.03.008-.025.004-.515.133-.467-2.022-.081.025h-.009l-.085.03-.086.03-.094.034-.138.052-.038.017-.172.069c-.53.23-1.033.517-1.5.857a7.33 7.33 0 0 0-2.477 3.193A7.07 7.07 0 0 0 4.8 13.32c.134.878.443 1.72.909 2.477.244.407.531.785.865 1.145l-.621.934 2.301-.587-.231-2.537-.591.891a5.6 5.6 0 0 1-1.518-2.837 5.7 5.7 0 0 1 .163-2.841 5.93 5.93 0 0 1 1.843-2.77 6.4 6.4 0 0 1 1.389-.89l.24 1.264-1.706.428.107.986.84-.214.707 4.804-1.02.257.172 1.573 2.271-.578.313 1.67 1.123-.29-.377-1.646.651-.167.069-.018.072-.017.07-.021.068-.017 1.191 4.538h.009q.308-.087.6-.218l.128-.056a7.28 7.28 0 0 0 4.198-4.769c.25-.917.313-1.875.186-2.817zm-8.314-1.26-.326-1.414.442-.111.043-.013q.333-.081.677-.086l.158.03a.5.5 0 0 1 .24.15l.086.129q.086.17.107.36v.171a.53.53 0 0 1-.129.279c-.034.043-.077.072-.128.111q-.18.116-.382.189a3 3 0 0 1-.257.077l-.535.128zm2.571 2.216a.7.7 0 0 1-.043.214.6.6 0 0 1-.098.172 1 1 0 0 1-.163.154 2 2 0 0 1-.231.141 3 3 0 0 1-.686.24l-.6.155-.489-2.117.558-.142a4 4 0 0 1 .634-.103c.094 0 .175 0 .257.013a.74.74 0 0 1 .557.3q.075.094.129.202c.09.2.148.415.171.634a.5.5 0 0 1 .004.137"/></g><defs><linearGradient id="b" x1="12" x2="12" y1="0" y2="24" gradientUnits="userSpaceOnUse"><stop stop-color="#5BC8CB"/><stop offset="1" stop-color="#03A4DF"/></linearGradient><clipPath id="a"><path fill="#fff" d="M0 0h24v24H0z"/></clipPath></defs></svg>
